Origami/48x48/apps/soapui.svg

<svg width="48" height="48" version="1" xmlns="http://www.w3.org/2000/svg">
 <rect transform="matrix(-.70710678 -.70710678 -.70710678 .70710678 0 0)" x="-49.67" y="-14.31" width="30.04" height="30.04" rx="3.004" ry="3.004" style="opacity:.2"/>
 <rect transform="matrix(-.70710678 -.70710678 -.70710678 .70710678 0 0)" x="-48.96" y="-15.02" width="30.04" height="30.04" rx="3.004" ry="3.004" style="fill:#66b744"/>
 <path d="m 24,10 c -3.503581,0 -6.345387,0.754331 -8.474609,2.232422 l -2.160157,2.160156 C 12.370763,15.850063 11.870084,17.573822 12.009766,19.25 12.424711,24.229346 17.409091,28 24,28 c 4.409091,0 5.924711,2.229346 6.009766,3.25 0.04253,0.510327 -0.02979,0.902097 -0.802735,1.494141 C 28.434085,33.336184 26.788462,34 24,34 20.2,34 15.542969,31.427734 15.542969,31.427734 a 3.0003,3.0003 0 0 0 -4.517578,1.839844 l 5.101562,5.101563 C 18.217322,39.197428 21.000479,40 24,40 c 3.503581,0 6.345387,-0.754331 8.474609,-2.232422 l 2.160157,-2.160156 C 35.629237,34.149937 36.129916,32.426178 35.990234,30.75 35.575289,25.770654 30.590909,22 24,22 c -4.409091,0 -5.924711,-2.229346 -6.009766,-3.25 -0.04253,-0.510327 0.02979,-0.902097 0.802735,-1.494141 C 19.565915,16.663816 21.211538,16 24,16 c 3.8,0 8.457031,2.572266 8.457031,2.572266 a 3.0003,3.0003 0 0 0 4.517578,-1.839844 L 31.873047,11.630859 C 29.782678,10.802572 26.999521,10 24,10 Z" style="fill-rule:evenodd;opacity:.2"/>
 <path d="m24 9c-3.503581 0-6.345387 0.7543308-8.474609 2.232422l-2.160157 2.160156c-0.994471 1.457485-1.49515 3.181244-1.355468 4.857422 0.414945 4.979346 5.399325 8.75 11.990234 8.75 4.409091 0 5.924711 2.229346 6.009766 3.25 0.04253 0.510327-0.02979 0.902097-0.802735 1.494141-0.772946 0.592043-2.418569 1.255859-5.207031 1.255859-3.8 0-8.457031-2.572266-8.457031-2.572266a3.0003 3.0003 0 0 0 -4.517578 1.839844l5.101562 5.101563c2.090369 0.828287 4.873526 1.630859 7.873047 1.630859 3.503581 0 6.345387-0.754331 8.474609-2.232422l2.160157-2.160156c0.994471-1.457485 1.49515-3.181244 1.355468-4.857422-0.414945-4.979346-5.399325-8.75-11.990234-8.75-4.409091 0-5.924711-2.229346-6.009766-3.25-0.04253-0.510327 0.02979-0.902097 0.802735-1.494141 0.772946-0.592043 2.418569-1.255859 5.207031-1.255859 3.8 0 8.457031 2.572266 8.457031 2.572266a3.0003 3.0003 0 0 0 4.517578 -1.839844l-5.101562-5.101563c-2.090369-0.8282866-4.873526-1.630859-7.873047-1.630859z" style="fill-rule:evenodd;fill:#ffffff"/>
 <path d="m24 4c-0.767883 0-1.536609 0.294421-2.125 0.8828125l-16.992188 16.992188c-0.7168918 0.716892-0.9925013 1.699848-0.8359375 2.625 0.1004368-0.593492 0.3760463-1.165109 0.8359375-1.625l16.992188-16.992188c1.176783-1.176783 3.073217-1.176783 4.25 0l16.992188 16.992188c0.459891 0.459891 0.7355 1.031508 0.835937 1.625 0.156564-0.925152-0.119046-1.908108-0.835937-2.625l-16.992188-16.992188c-0.588391-0.5883915-1.357117-0.8828125-2.125-0.8828125z" style="fill:#ffffff;opacity:.2"/>
</svg>

<svg xmlns="http://www.w3.org/2000/svg" width="48" height="48" version="1">
 <rect style="opacity:0.2" width="30.04" height="30.04" x="-49.67" y="-14.31" rx="3.004" ry="3.004" transform="matrix(-0.70710678,-0.70710678,-0.70710678,0.70710678,0,0)"/>
 <rect style="fill:#66b744" width="30.04" height="30.04" x="-48.96" y="-15.02" rx="3.004" ry="3.004" transform="matrix(-0.70710678,-0.70710678,-0.70710678,0.70710678,0,0)"/>
 <path style="opacity:0.2;fill-rule:evenodd" d="m 24,10 c -3.503581,0 -6.345387,0.754331 -8.474609,2.232422 l -2.160157,2.160156 C 12.370763,15.850063 11.870084,17.573822 12.009766,19.25 12.424711,24.229346 17.409091,28 24,28 c 4.409091,0 5.924711,2.229346 6.009766,3.25 0.04253,0.510327 -0.02979,0.902097 -0.802735,1.494141 C 28.434085,33.336184 26.788462,34 24,34 20.2,34 15.542969,31.427734 15.542969,31.427734 a 3.0003,3.0003 0 0 0 -4.517578,1.839844 l 5.101562,5.101563 C 18.217322,39.197428 21.000479,40 24,40 c 3.503581,0 6.345387,-0.754331 8.474609,-2.232422 l 2.160157,-2.160156 C 35.629237,34.149937 36.129916,32.426178 35.990234,30.75 35.575289,25.770654 30.590909,22 24,22 c -4.409091,0 -5.924711,-2.229346 -6.009766,-3.25 -0.04253,-0.510327 0.02979,-0.902097 0.802735,-1.494141 C 19.565915,16.663816 21.211538,16 24,16 c 3.8,0 8.457031,2.572266 8.457031,2.572266 a 3.0003,3.0003 0 0 0 4.517578,-1.839844 L 31.873047,11.630859 C 29.782678,10.802572 26.999521,10 24,10 Z"/>
 <path style="fill:#ffffff;fill-rule:evenodd" d="M 24 9 C 20.496419 9 17.654613 9.7543308 15.525391 11.232422 L 13.365234 13.392578 C 12.370763 14.850063 11.870084 16.573822 12.009766 18.25 C 12.424711 23.229346 17.409091 27 24 27 C 28.409091 27 29.924711 29.229346 30.009766 30.25 C 30.052296 30.760327 29.979976 31.152097 29.207031 31.744141 C 28.434085 32.336184 26.788462 33 24 33 C 20.2 33 15.542969 30.427734 15.542969 30.427734 A 3.0003 3.0003 0 0 0 11.025391 32.267578 L 16.126953 37.369141 C 18.217322 38.197428 21.000479 39 24 39 C 27.503581 39 30.345387 38.245669 32.474609 36.767578 L 34.634766 34.607422 C 35.629237 33.149937 36.129916 31.426178 35.990234 29.75 C 35.575289 24.770654 30.590909 21 24 21 C 19.590909 21 18.075289 18.770654 17.990234 17.75 C 17.947704 17.239673 18.020024 16.847903 18.792969 16.255859 C 19.565915 15.663816 21.211538 15 24 15 C 27.8 15 32.457031 17.572266 32.457031 17.572266 A 3.0003 3.0003 0 0 0 36.974609 15.732422 L 31.873047 10.630859 C 29.782678 9.8025724 26.999521 9 24 9 z"/>
 <path style="fill:#ffffff;opacity:0.2" d="M 24 4 C 23.232117 4 22.463391 4.294421 21.875 4.8828125 L 4.8828125 21.875 C 4.1659207 22.591892 3.8903112 23.574848 4.046875 24.5 C 4.1473118 23.906508 4.4229213 23.334891 4.8828125 22.875 L 21.875 5.8828125 C 23.051783 4.7060295 24.948217 4.7060295 26.125 5.8828125 L 43.117188 22.875 C 43.577079 23.334891 43.852688 23.906508 43.953125 24.5 C 44.109689 23.574848 43.834079 22.591892 43.117188 21.875 L 26.125 4.8828125 C 25.536609 4.294421 24.767883 4 24 4 z"/>
</svg>
